X:1
T:El Choclo
T:Tango
T:Angel Villoldo (1861-1919)
L:1/8
M:4/4
K:Bb
V:1 treble nm="Flûte" snm="Fl."
V:1
 z4 z DDE |S"Gm""^A" EDDG GBBe | e2 d2 z ddg | gddB BccB |"D7" B2 A2 z DDE | EDD^F FAAe | %6
 e2 d2 z d^cd | a^ffd dccB |"Gm" A2 G2 z DDE | EDDG GBBe | e2 d2 z d^cd |"G7" gdd=B Bddf | %12
"Cm" f2 e2 z eed | dccB BAAB |"Gm" A2 G2 z BAG |"D7" G^F-FA ccBA!dacoda! | %16
"Gm" G2"D7" z2"Gm" z F=EF |"F7""^B" e e2 e fed^c |"Bb" e d2 A cBAG |"F7" B A2 E AGF=E | %20
"Bb" GF- F2 z D^CD |"D7" c c2 c dcBA |"Gm" cB z B c2 B2 |"Eb" AG^FG ABc^c |"D7" d2 z2 z Dd=B |: %25
[K:G]"G""^C" G D2 B GDGB |"D7" c2 A2 z DcA |"D7" F D2 A FDFA |"G" B2 G2 z BBA |"E" ^GE-EE FGAB |1 %30
"Am" d2 c2 z EEB |"A" B2 A2 z EEG |"D7" G2 F2 z DdB :|2"Am" d2 c2 z EEB ||"A" BAAA AEFG | %35
"D7" F2 z2 z DD_E!D.S.! ||O"Gm" G2"D7" z2"Gm" z4 |] %37

